X: 4378
T: MARCH FROM "BLUE BEARD."
R: March
%R: march
B: James Kerr "Merry Melodies" v.4 p.41 #378
Z: 2016 John Chambers <jc:trillian.mit.edu>
M: C
L: 1/8
K: D
|:\
a3g f2e2 | d4 e4 | fefg a2(gf) | e2e>e e2z2 |\
a3g f2e2 | d4 e4 | fefg f2e2 | d2d>d d2z2 :|
|:\
e3d c2d2 | e4 f4 | gfga b2g2 | e2e>e e2z2 |\
e3d c2d2 | e2e>e e2f2 | e2d2 c2B2 | A2A>A A2"_D.C."z2 :|

%%sep 1 1 500
%%sep 1 1 500

